icons/tag-help-outline.svg

<svg xmlns="http://www.w3.org/2000/svg" width="24" height="24" viewBox="0 0 24 24">
  <path d="M13,2 C13.2652165,2 13.5195704,2.10535684 13.7071068,2.29289322 L13.7071068,2.29289322 L21.2928932,9.87867966 C22.4644661,11.0502525 22.4644661,12.9497475 21.2928932,14.1213203 L21.2928932,14.1213203 L14.1213203,21.2928932 C12.9497475,22.4644661 11.0502525,22.4644661 9.87867966,21.2928932 L9.87867966,21.2928932 L2.29289322,13.7071068 C2.10535684,13.5195704 2,13.2652165 2,13 L2,13 L2,5 C2,3.34314575 3.34314575,2 5,2 L5,2 Z M12.585,4 L5,4 C4.44771525,4 4,4.44771525 4,5 L4,5 L4,12.585 L11.2928932,19.8786797 C11.6533772,20.2391636 12.2206082,20.2668932 12.6128994,19.9618683 L12.6128994,19.9618683 L12.7071068,19.8786797 L19.8786797,12.7071068 C20.2692039,12.3165825 20.2692039,11.6834175 19.8786797,11.2928932 L19.8786797,11.2928932 L12.585,4 Z M12.0001686,14 C12.5524586,14 13.0001686,14.4477 13.0001686,15 C13.0001686,15.5523 12.5524586,16 12.0001686,16 C11.4478886,16 11.0001686,15.5523 11.0001686,15 C11.0001686,14.4477 11.4478886,14 12.0001686,14 Z M12.0001686,8 C12.5537486,8 13.1555886,8.16344 13.6376686,8.525 C14.1397686,8.90158 14.5001686,9.48991 14.5001686,10.25 C14.5001686,10.69838 14.3847686,11.07994 14.1710686,11.4004 C13.9664386,11.70737 13.7009186,11.91339 13.4787086,12.06154 C13.3700286,12.134 13.2594286,12.20036 13.1657686,12.25656 L13.1657686,12.25656 C13.0591686,12.32052 12.9769786,12.37001 12.9005986,12.42093 C12.7478286,12.52279 12.6695886,12.59803 12.6242286,12.66609 C12.3944886,13.01075 11.9288386,13.10391 11.5841786,12.87417 C11.2395186,12.64442 11.1463586,12.17878 11.3760986,11.83412 C11.5807386,11.52712 11.8462486,11.32107 12.0684786,11.1729 C12.1772086,11.10041 12.2878586,11.03402 12.3815586,10.9778 L12.3815586,10.9778 C12.4880486,10.9139 12.5702386,10.86441 12.6466286,10.81349 C12.7994086,10.71162 12.8776486,10.63639 12.9229986,10.56835 C12.9593586,10.51381 13.0001686,10.42662 13.0001686,10.25 C13.0001686,10.01009 12.9022286,9.84842 12.7376686,9.725 C12.5530786,9.58656 12.2799186,9.5 12.0001686,9.5 C11.6314086,9.5 11.4046986,9.59004 11.2599386,9.68654 C11.1104886,9.78617 11.0014986,9.92438 10.9209886,10.08541 C10.7357486,10.45589 10.2852386,10.60606 9.91475858,10.42082 C9.54426858,10.23558 9.39409858,9.78507 9.57934858,9.41459 C9.74882858,9.07562 10.0148386,8.71383 10.4278886,8.43846 C10.8456386,8.15996 11.3689286,8 12.0001686,8 Z"/>
</svg>

<svg xmlns="http://www.w3.org/2000/svg" viewBox="0 0 24 24">
  <path d="M13 2a1 1 0 0 1 .7.3l7.6 7.58a3 3 0 0 1 0 4.24l-7.18 7.17a3 3 0 0 1-4.24 0l-7.59-7.58A1 1 0 0 1 2 13V5a3 3 0 0 1 3-3zm-.41 2H5a1 1 0 0 0-1 1v7.59l7.3 7.29a1 1 0 0 0 1.31.08l.1-.08 7.17-7.17a1 1 0 0 0 0-1.42L12.58 4zM12 14a1 1 0 1 1 0 2 1 1 0 0 1 0-2zm0-6c.55 0 1.16.16 1.64.53.5.37.86.96.86 1.72a2.03 2.03 0 0 1-1.02 1.81l-.31.2-.27.16a.96.96 0 0 0-.28.25.75.75 0 0 1-1.24-.84c.2-.3.47-.5.69-.66l.31-.2c.1-.06.19-.1.27-.16.15-.1.23-.17.27-.24a.54.54 0 0 0 .08-.32c0-.24-.1-.4-.26-.53A1.26 1.26 0 0 0 12 9.5c-.37 0-.6.09-.74.19a1 1 0 0 0-.34.4.75.75 0 0 1-1.34-.68c.17-.33.43-.7.85-.97.42-.28.94-.44 1.57-.44z"/>
</svg>
